X: 821
T: Lame Crowley
B: O'Neill's 1850 #821
O: F.O'Neill
Z: Dan G. Petersen, dangp@post6.tele.dk
M: 6/8
L: 1/8
K: G
|:\
dBA A2c | BAB G2e | dBA ABd | e2d efg |\
dBA A2c | BAB G2d | gbg faf | e2d efg :|
|:\
def g2g | agf g2g | def g2a | bge edB |\
def g2g | agf g2a | bag agf | e2d efg :|
